src/actions/symbolic/move-symbolic.svg

<svg width="16" height="16" version="1.1" xmlns="http://www.w3.org/2000/svg">
 <path d="m10.828 2.8281-2.8281-2.8281-2.8281 2.8281 0.70703 0.70703 1.6211-1.6211v3.0859h1v-3.0859l1.6211 1.6211z" fill="#363636"/>
 <path d="m10.828 13.172-2.8281 2.8281-2.8281-2.8281 0.70703-0.70703 1.6211 1.6211v-3.0859h1v3.0859l1.6211-1.6211z" fill="#363636"/>
 <path d="m13.172 10.828 2.8281-2.8281-2.8281-2.8281-0.70703 0.70703 1.6211 1.6211h-3.0859v1h3.0859l-1.6211 1.6211z" fill="#363636"/>
 <path d="m2.828 10.828-2.8281-2.8281 2.8281-2.8281 0.70703 0.70703-1.6211 1.6211h3.0859v1h-3.0859l1.6211 1.6211z" fill="#363636"/>
 <circle cx="8" cy="8" r="1" fill="#363636"/>
</svg>

<svg xmlns="http://www.w3.org/2000/svg" width="16" height="16">
    <path fill="#050505" fill-opacity=".7" d="M10.828 2.828 8 0 5.172 2.828l.707.707 1.62-1.621V5h1V1.914l1.622 1.621zM10.828 13.172 8 16l-2.828-2.828.707-.707 1.62 1.621V11h1v3.086l1.622-1.621zM13.172 10.828 16 8l-2.828-2.828-.707.707 1.621 1.62H11v1h3.086l-1.621 1.622zM2.828 10.828 0 8l2.828-2.828.707.707-1.621 1.62H5v1H1.914l1.621 1.622z"/>
    <circle cx="8" cy="8" r="1" fill="#050505" fill-opacity=".7"/>
</svg>
